X:1
T:17 - Tutto il dí piango
T:Luca Marenzio (1556 - 1599) 1º Libro di Madrigali a quattro voci (Venetia, 1592)
T:Francesco Petrarca
T:17 - Tutto il dí piango
T:© 2018 Ed. Marcos Mato
T:© 2018 Ed. Marcos Mato
T:© 2018 Ed. Marcos Mato
T:© 2018 Ed. Marcos Mato
T:© 2018 Ed. Marcos Mato
T:© 2018 Ed. Marcos Mato
T:© 2018 Ed. Marcos Mato
T:© 2018 Ed. Marcos Mato
T:© 2018 Ed. Marcos Mato
C:Luca Marenzio (1556 - 1599)
C:1º Libro di Madrigali a quattro voci (Venetia, 1592)
Z:Francesco Petrarca
Z:© 2018 Ed. Marcos Mato
%%score [ 1 2 3 4 ]
L:1/8
M:4/4
K:F
V:1 treble nm="Soprano" snm="Sop."
V:2 alto2 nm="Alto" snm="A."
V:3 alto transpose=-12 nm="Tenor" snm="T."
V:4 bass3 nm="Basso" snm="Bajo"
V:1
 A4 | [Eg]2 |[M:4/2]"^Prima parte" z16 | z16 | z4 A4 ^c4 c4 | d8 A4 d4 | c4 B8 c4 | F4 G8 ^F4 | %8
w: ||||E poi la|not- te, quan-|do pren- don|ri- po- so\_i|
 A12 A4 | ^F8 z4 d4 | d4 d4 =f8 | e16 | z4 A4 ^c4 c4 | d8 G4 d4- | d4 c8 =B4 | c4 d8 ^c4- | %16
w: mi- se-|ri, tut-|to'l di pian-|go;|et poi la|not- te, quan-|* do pren-|don ri- po-|
 c4"^#" ^c4 d4 A4 | =B8 ^c4 d4- | d4 ^c4 d8- | d8 A8 | A4 A4 B8 | B8 z4 B4 | d12 e4 | f8 f4 B4 | %24
w: * so\_i mi- se-|ri mor- ta-|* * li,|_ tro-|vo- mi\_in pian-|to, e|ra- dop-|pian- si, e|
 d12 e4 | f16 | d16 | d6 c2 B8- | B8 A8 | d4 e4 f4 e2 d2 | c4 d4 z8 | d4 e4 f4 e2 d2 | c4 d4 e8 | %33
w: ra- dop-|pian-|si\_i|ma- * *|* li:|co- sí spen- do'l mio|tem- po,|co- sí spen- do'l mio|tem- po la-|
 e8 E8 | E4 A8 B4- | B4 A4 G4 g4- | g4 f8 e4- | e4 d8 c4- | c4 B8 A2 G2 | A4 G2 g4 f4 g2 | %40
w: gri- man-|do. In trist'|_ hu- mor vo|_ gl'oc chi|_ con- su-|* man- * *|* do, in trist' hu-|
 c4 e4 d8 | c8 B8 | A8 G8 | ^F8 z4 G4 | g12 =f4 | _e8 d8- | d8 z8 | z4 f6 d2 e4 | c4 c4 d6 d2 | %49
w: mor vo gl'oc-|chi con-|su- man-|do, e'l|cor in|do- glia;|_|l'ul- ti- mo,|sí, et son fra|
 e6 e2 f4 f4 | d6 B2 c4 A4 | z16 | d8 c6 d2 | c4 A4 B2 c2 d2 e2 | f8 f4 d4 | e6 A2 c4 c4 | d8 c8 | %57
w: gl'a- ni- ma- li|l'ul- ti- mo, sí||che gl'a- mo-|ro- si stra- * * *|* li, che|gl'a- mo- ro- si|stra- li|
 z4 A4 B2 c2 d2 e2 | f12 d4 | e4 A4 z4 d4 | d2 c2 B2 A2 B8 | A16 ||"^Seconda parte" d16 | c16 | %64
w: mi ten- gon ad ogn'|hor di|pa- ce in|ban- * * * *|do.|Las-|so,|
 z16 | z8 d8- | d8 c8 | z4 F4 f8- | f4 e4 f4 d4 | e4 f4 g2 f2 f4- | f2 ed e4 f8 | z8 z4 c4 | %72
w: |las-|* so,|che pur|_ da l'u- no\_a|l'al- tro so- * *|* * * * le,|et|
 d2 c2 B2 A2 G8 | F4 A4 B8- | B4 A6 GF G4 | A8 A4 =B4- | B4 c4 d8 | G8 z8 | c4 g6 e2 d4 | %79
w: da l'un' om- bra\_a l'al-|tra,\_hò già'l più|_ cor- * * *|so di ques-|* ta mor-|te,|di ques- ta mor-|
 c8 z4 c2 c2 | =B2 c2 d4 f4 F4 | c12 d4 | _e8 d4 d2 d2 | f4 =e4 d8 | d16 | z4 G4 d8- | d4 e4 f8 | %87
w: te, che si|chia- ma vi- ta, di|ques- ta|mor- te, che si|chia- ma vi-|ta.|Piú l'al-|* trui fal-|
 e4 f6 f2 f4- | f4 e4 d8 | c16- | c8 z4 c4- | c4 B4 A8 | A8 c6 c2 | c8 d4 B4 | A8 A8 | z16 | %96
w: lo che'l mio mal|_ mi do-|le:|_ ché|_ Pie- tà|vi- va,\_e'l mio|fi- do soc-|cor- so,||
 z4 d6 d2 d4- | d4 c2 B2 A4 F4 | c8 d4 e4- | e4 A4 z4 A4- | A2 A2 A8 G2 F2 | E4 A8 f4- | %102
w: vè- dem' ar-|* der nel fo- co,\_et|non m'a- i-|* ta, vè-|* dem' ar- der nel|fo- co, vè-|
 f2 f2 f8 e2 d2 | ^c4 d4 d8- | d16 | c8 B8 | A8 f6 f2 | f4 e2 d2 c2 F2 c4- | c4 e4 A8 | A16 |] %110
w: * dem' ar- der nel|fo- co,\_et non|_|m'a- i-|ta, vè- dem'|ar- der nel fo- co,\_et non|_ m'a- i-|ta.|
V:2
 D4 | [G,c]2 |[M:4/2] z16 | z16 | z16 | z4 D4 ^F4 F4 | G8 G8 | z4 D4 D4 D4 | F8 E8 | A8 A4 A4 | %10
w: |||||Et poi la|not- te,|tut- to'l di|pian- go,|tut- to'l di|
 B8 A8- | A8 z4 A4 | ^F4 F4 A8 | D8 z4 B4- | B4 G4 A4 G4- | G4 A4 A8 | E8 A,4 D4 | D8 G8 | %18
w: pian- go;|_ et|poi la not-|te, quan-|* do pren- don|_ ri- po-|so\_i mi- se-|ri mor-|
 G8 ^F8- | F8 z8 | =F8 F4 F4 | G8 G8 | z4 D4 F4 G4 | A8 D8- | D8 G8 | A8 B8- | B8 B8- | %27
w: ta- li,|_|tro- vo- mi\_in|pian- to,|e ra- dop-|pian- si,|_ e|ra- dop-|pian- si\i|
 B4 A4 G2 FE D2 E2 | F8 F8 | z16 | z8 G4 A4 | B4 A2 G2 F4 G4 | A4 G2 F2 E4 ^F4 | ^G4 A8 G4 | %34
w: _ ma- * * * * *|* li:||co- sí|spen- do'l mio tem- po|la- * * * gri-|man- * *|
 A8 z4 =G4- | G4 F8 E2 D2 | E4 A4 G8 | F8 E8 | D8 C8 | C8 B,8 | A,4 A8 G4- | G4 F8 E4- | %42
w: do. In|_ trist' _ _|_ hu- mor|vo gl'oc|chi con-|su- man-|do, vo gl'oc-|* chi con-|
 E4 D8 ^C4 | D8 z4 B,4 | B12 A4 | G8 F8 | z16 | z4 A6 F2 G4 | A8 z8 | z8 z4 F4- | F2 D2 G4 E4 c4- | %51
w: * su- man-|do, e'l|cor in|do- glia;||l'ul- ti- mo,|sí,|l'ul-|* ti- mo, sí, l'ul-|
 c2 G2 A4 F4 z4 | z16 | z8 z4 G4 | A4 B4 A4 =B4 | c2 _BA G2 F2 G2 E2 A4- | A2 GF G4 A8- | %57
w: * ti- mo, sí||che|gl'a- mo- ro- si|stra- * * * * * * *|* * * * li|
 A8 z4 G4 | A2 B2 c2 A2 B8 | z4 c8 B4- | B4 G4 G8 | ^F16 || z8 A8- | A8 G8 | G4 G8 ^F4 | %65
w: _ mi|ten- gon ad ogn' hor|di pa-|* ce\_in ban-|do.|Las-|* so,|che pur da|
 G4 A4 B2 A2 A4- | A2 GF G4 A8 | z4 A4 A8- | A4 G4 A4 B4 | c4 A4 B6 A2 | G8 F4 D4 | %71
w: l'u- no\_a l'al- tro so-|* * * * le,|che pur|_ da l'u- no\_a|l'al- tro so- *|* le, et|
 B,2 C2 D2 E2 F4 A4 | z8 z4 G4 | A2 G2 F2 E2 D4 E4 | F8 F4 D4- | D4 ^C4 z4 D4 | D4 E4 F8 | %77
w: da l'un' om- br'a l'al- tra,|et|da l'un' om- bra\_a l'altr', hò|già'l piú cor-|* so di|ques- ta mor-|
 E8 G2 G2 ^F2 G2 | A2 G=F E3 C D2 C4 =B,2 | z4 G2 G2 ^F2 G4 F2 | G4 G,4 A,2 B,2 C2 D2 | E4 F4 F8 | %82
w: te, che si chia- ma|vi- * * * * * * ta,|che si chia- ma vi-|ta, di ques- * * *|* ta mor-|
 c8 F8 | z4 G2 G2 ^F2 G2 A4 | B8 z4 A4 | =B4 c4 F8 | G8 A8- | A8 A6 A2 | =B4 c8 B4- | B4 A8 G2 F2 | %90
w: * te,|che si chia- ma vi-|ta. Piú|l'al- trui fal-|* lo|_ che'l mio|mal mi do-||
 G8 z4 A4- | A4 G4 E8 | F2 G2 A2 F2 G4 E4 | G4 A4 F4 G4 | E8 F6 G2 | A16 | z4 B6 B2 B4- | %97
w: le: ché|_ Pie- tà|vi- * * * * va,\_e'l|mio fi- do soc-|cor- * *|so,|vè- dem' ar-|
 B4 A2 G2 F8 | E4 F8 C4- | C4 D4 A,8 | z4 z2 E2 F8 | C8 D8 | A16 | z4 B6 B2 B4- | %104
w: * der nel fo-|co,\_e non m'a-|* i- ta,|e non|m'a- i-|ta,|vè- dem' ar-|
 B4 A2 G2 F2 F2 B4- | B4 A4 G8 | F4 D6 D2 D4- | D4 C2 B,2 A,2 A,2 A4- | A4 G4 F8 | E16 |] %110
w: * der nel fo- co,\_e non|_ m'a- i-|ta, vè- dem' ar-|* der nel fo- co,\_e non|_ m'a- i-|ta.|
V:3
 D4 | [G,A]2 |[M:4/2] z16 | D8 D4 D4 | F8 E8 | z16 | G,8 G,4 G,4 | B,8 A,8 | z4 A,4 ^C4 C4 | %9
w: |||Tut- to'l dí|pian- go,||tut- to'l dí|pian- go;|et poi la|
 D8 A,8 | z8 z4 A,4 | ^C4 C4 E8 | A4 D4 E8 | F8 E4 F4 | G4 E4 D6 D2 | E4 D4 F4 E4 | z4 E4 A6 A2 | %17
w: not- te,|et|poi la not-|te, quan- do|pren- don ri-|po- so\_i mi- se-|ri mor- ta- li,|i mi- se-|
 G4 G4 G,8- | G,8 A,8- | A,8 z8 | D8 D4 D4 | _E8 E8 | z4 B,4 D8- | D4 E4 F8 | F8 B,8 | D12 E4 | %26
w: ri mor- ta-|* li,|_|tro- vo- mi\_in|pian- to,|et ra-|* dop- pian-|si, e|ra- dop-|
 F8 G8 | F6 E2 D8- | D8 C8 | z8 F4 G4 | A4 G2 F2 E4 F4 | G4 F2 E2 D4 E4 | F4 E2 D2 C8- | %33
w: pian- si\_i|ma- * *|* li:|co- sí|spen- do'l mio tem- po|la- * * * gri-|man- * * *|
 C4 =B,2 A,2 B,8 | ^C8 D8 | E4 F4 G8 | z16 | z8 z4 A4- | A4 G8 F4- | F4 E4 D8 | E4 A,4 z8 | %41
w: |do. In|trist' hu- mor||vo|_ gl'oc chi|_ con- su-|man- do,|
 z4 C4 D4 G4 | C4 D4 E8 | A,4 A,4 B,6 C2 | D8 G,8 | B,8 B,4 F4- | F2 F2 G6 G2 A4 | A8 z4 C4- | %48
w: vo gl'oc- chi|con- su- man-|do, e'l cor _|_ in|do- glia;\_et son|_ fra gl'a- ni- ma-|li, et|
 C4 F6 F2 G4- | G2 G2 A4 A8 | z8 A6 F2 | G4 E4 z8 | z4 D4 E4 F4 | E4 ^F4 G6"^§" =FE | D6 E2 F8 | %55
w: _ son fra gl'a-|* ni- ma- li|l'ul- ti-|mo, sí|che gl'a- mo-|ro- si stra- * *||
 G2 F2 E2 D2 E8 | z4 D4 E4 F4 | E4 ^F4 G8 | =F4 A4 D2 E2 F2 G2 | C4 F4 E4 D4 | D16 | D16 || F16 | %63
w: * * * * li,|che gl'a- mo-|ro- si stra-|li mi ten- gon ad ogn'|hor di pa- ce\_in|ban-|do.|Las-|
 E8 E4 E4- | E4 D4 E4 C4 | D4 E4 F6 E2 | D8 E8 | F12 D4 | z16 | z16 | z16 | z4 G4 A2 G2 F2 E2 | %72
w: so, che pur|_ da l'u- no\_a|l'al- tro so- *|* le,|las- so,||||et da l'un' om- br'a|
 D8 _E4 B,4 | D4 D8 C2 B,2 | C6 A,2 D6 E2 | F4 E4 z2 ^F2 G4- | G4 G,2 C4"^§" =B,A, B,4 | C8 z8 | %78
w: l'al- tra,\_hò già'l|piú cor- * *||* so di ques-|* ta mor- * * *|te,|
 z4 C2 C2 =B,2 C2 D4 | E8 z4 C2 C2 | D2 C2 =B,4 C4 A,4 | G,4 A,8 _B,4- | B,2 A,G, A,4 B,8 | %83
w: che si chia- ma vi-|ta, che si|chia- ma vi- ta, di|ques- ta mor-|* * * * te,|
 C2 D2 E4 A2 G4 ^F2 | G4 D8 =F4- | F4 E4 D2 E2 F4- | F4 E2 D2 C4 D4- | D4 ^C4 z4 D4- | %88
w: che si chia- ma vi- *|ta. Piú l'al-|* trui fal- * *||* lo che'l|
 D2 D2 G,4 A,4 F4- | F2 ED C2 D2 E4 F4- | F4 E4 z4 F4- | F4 D4 ^C8 | D2 E2 F2 D2 E4 G4- | %93
w: _ mio mal mi do-||* le: ché|_ Pie- tà|vi- * * * * va,\e'l|
 G2 E4 F4 D4 E2 | ^C2 D4 C2 D4 F4- | F2 F2 F8 E2 D2 | ^C4 D4 z8 | z8 z4 A4- | A2 A2 A8 G2 F2 | %99
w: _ mio fi- do soc-|cor- * * so, vè-|* dem' ar- der nel|fo- co,|vè-|* dem' ar- der nel|
 E2 E2 F8 C4 | D4 E4 z8 | A6 E2 F8 | F8 z8 | z4 G6 G2 G4- | G4 F2 E2 D4 D4 | F6 E2 D8 | %106
w: fo- co,\_et non m'a-|i- ta,|vè- dem' ar-|der,|vè- dem' ar-|* der nel fo- co,\_et|non m'a- i-|
 D2 E2 F2 G2 A8 | z4 A8 F4- | F4 E4 D8 | ^C16 |] %110
w: ta, _ _ _ _|e non|_ m'a- i-|ta.|
V:4
 A,4 | [A,,D]2 |[M:4/2] A,8 A,4 A,4 | B,16 | A,16 | D,8 D,4 D,4 | _E,16 | D,16- | D,8 z8 | %9
w: ||Tut- to'l dí|pian-|go,|tut- to'l dí|pian-|go;|_|
 z4 D,4 ^F,4 F,4 | G,8 D,8 | z4 A,4 ^C4 C4 | D8 A,8 | z4 D4 C4 B,4- | B,4 C4 F,4 G,4- | %15
w: et poi la|not- te,|et poi la|not- te,|quan- do pren-|* don ri- po-|
 G,4 ^F,4 A,8- | A,4 A,4 ^F,8 | G,8 E,8- | E,8 D,8- | D,16 | z16 | z16 | z16 | D8 B,8- | %24
w: * so\_i mi-|* se- ri|mor- ta-|* li,|_||||et ra-|
 B,4 A,4 G,8 | D,4 D4 B,8- | B,4 A,4 G,8 | D,8 G,8 | F,16 | B,4 C4 D4 C2 B,2 | A,4 B,4 C8 | B,16 | %32
w: * dop- pian-|si, et ra-|* dop- pian-|si\_i ma-|li:|co- sí spen- do'l mio|tem- po la-|gri-|
 A,16 | E,16 | A,8 ^F,4 G,4 | C,16 | C8 =B,4 C4 | F,8 A,8 | ^F,4 G,4 C,8 | z8 D8 | C8 B,8 | %41
w: man-|do.|In trist' hu-|mor,|in trist' hu-|mor, in|trist' hu- mor|vo|gl'oc- chi|
 A,8 G,8 | F,8 E,8 | D,4 D,4 G,8- | G,4 F,4 _E,8- | E,8 B,,8 | B,6 B,2 C6 C2 | D4 D4 z8 | %48
w: con- su-|man- do,|e'l cor in|* do- glia;|* et|son fra gl'a- ni-|ma- li,|
 F,8 B,6 B,2 | C6 C2 D4 D4 | B,6 G,2 A,4 F,4 | C6 A,2 B,4 G,4 | z8 z8 | z16 | z8 D8 | %55
w: et son fra|gl'a- ni- ma- li|l'ul- ti- mo, sí,|l'ul- ti- mo, sí|||che|
 C6 D2 C4 A,4 | B,8 A,8- | A,4 D4 G,2 A,2 B,2 C2 | F,8 B,8 | A,8 G,8 | G,16 | D,16 || D16 | %63
w: gl'a- mo- ro- si|stra- li|_ mi ten- gon ad ogn'|hor di|pa- ce\_in|ban-|do.|Las-|
 A,8 C4 C4- | C4 =B,4 C4 A,4 | _B,4 C4 D6 C2 | B,8 A,8 | D16 | C8 z8 | z16 | z4 C4 D2 C2 B,2 A,2 | %71
w: so, che pur|_ da l'u- no\_a|l'al- tro so- *|* le,|las-|so,||e da l'un' om- bra\_a|
 G,8 F,4 F,4 | B,2 A,2 G,2 F,2 _E,8 | D,8 G,8 | F,8 B,8 | A,8 D,4 G,4- | G,4 E,4 D,8 | %77
w: l'al- tra, e|da l'un' om- bra\_a l'al-|tr',hò già'l|piú cor-|so di ques-|* ta mor-|
 C,4 C2 C2 =B,2 C2 D4 | C8 G,8 | C8 A,8 | G,8 F,8 | C,4 F,8 D,4 | C,8 B,,4 B,2 B,2 | %83
w: te, che si chia- ma vi-|ta, hò|già'l piú|cor- so|di ques- ta|mor- te, che si|
 A,2 B,2 C4 D8 | z4 G,8 D4- | D4 C4 B,8- | B,8 A,8- | A,8 D,6 D,2 | D,4 E,4 F,8- | F,8 C,8- | %90
w: chia- ma vi- ta.|Piú l'al-|* trui fal-|* lo|_ che'l mio|mal mi do-|* le:|
 C,8 z4 F,4- | F,4 G,4 A,8 | D,8 C,8 | C4 A,4 B,4 G,4 | A,8 D,4 D4- | D2 D2 D8 C2 B,2 | %96
w: _ ché|_ Pie- tà|vi- va,\_e'l|mio fi- do soc-|cor- so, vè-|* dem' ar- der nel|
 A,4 G,4 z4 G,4 | B,4 C4 D8 | A,8 z8 | z4 D,8 F,4- | F,4 C,4 D,8 | A,8 z4 D4- | D2 D2 D8 C2 B,2 | %103
w: fo- co, et|non m'a- i-|ta,|e non|_ m'a- i-|ta, vè-|* dem' ar- der nel|
 A,4 G,4 z8 | G,8 B,8 | F,8 G,8 | D,8 z8 | D,8 F,8 | C,8 D,8 | A,,16 |] %110
w: fo- co,|et non|m'a- i-|ta,|et non|m'a- i-|ta.|

